X: 24460
T: Lucky In Love
R: reel
M: 4/4
K: Gmajor
|:g3 d BG (3GGG|dGBd cA (3AAA|(3ggg gd BGAB|1 cedc BG (3GGG:|2 cedc BGGA||
(3BAG dG eGdG|(3BAG dB cA (3AAA|(3BAG dB eBdB|cedc BGGA|
(3BAG dG gGdG|(3BAG dB cA (3AAA|GBdB cd (3efg|fadf gaba||

